X: 14347
T: Gallowglass, The
R: jig
M: 6/8
K: Adorian
|:cBA eAB|cBA A2 B|cBA efg|dBA GAB|
cBA eAB|cea e2 d|cBA GAB|cBA A3:|
a2 g e2 d|c2 A A2 B|cBA efg|dBA G2 e|
a2 g e2 d|c2 A Aed|cBA GAB|cBA A2 e|
a2 g e2 d|c2 A A2 B|cBA efg|dBA G2 e|
aeg fdf|ece dBd|cBA GAB|cBA A2 B|

